!!! OTL: Literature138
!!! Chapter: 5
!!! Section: IV
!!! Page: 377
!!! Mode: 
!!! Encoder: DJB
**kern
*staff1
*I"Piano
=1-
*clefF4
*k[b-e-a-]
*c:
*M3/4
2.C/
=2
2.E-\
=3
2A-\
4G\
=4
4F#\
4e-\
8.r
16F#\
=5
4A-\
4G\
4F\
=6
4E-\
4d-\
8.r
16E-\
=7
4G-\
4F\
4E-\
=8
4D\
4Bn\
8.r
16d\
=9
4E-\
4c\
8.r
16E-\
=10
2A-\
4An\
=11
4B-\
4Bn\
4c\
=12
4F\
4G\
4GG/
=13
!!linebreak:original
2.C/
==
*-
